app/assets/images/general/icons/logo.svg

<svg width="83" height="93" viewBox="0 0 83 93" fill="none" xmlns="http://www.w3.org/2000/svg">
<path fill-rule="evenodd" clip-rule="evenodd" d="M34.975 2.2222L35.8142 1.67831L34.7264 0L33.8872 0.543895L1.65007 21.4384L0.354292 22.2782L1.65072 23.1171L11.7995 29.6839L12.3449 30.0368L12.889 29.682L25.0734 21.7356V37.202H27.0734V19.8896V18.0435L25.5271 19.052L12.3406 27.6519L4.03365 22.2768L34.975 2.2222ZM27.0734 69.4392H25.0734V79.0641L11.5518 88.4252V34.2172V33.6912L11.1183 33.3932L1.56653 26.8263L0 25.7493V27.6504V83.7669V84.7669H2V83.7669V29.5514L9.55175 34.7432V90.3338V92.2423L11.121 91.156L26.6426 80.4102L27.0734 80.112V79.588V69.4392Z" fill="white"/>
<path d="M17.1895 46.7539V40.9018H20.9562V41.9832H18.5076V43.2606H19.638C20.2638 43.2606 20.7467 43.4061 21.0868 43.6972C21.4296 43.9856 21.601 44.3856 21.601 44.897C21.601 45.4847 21.4187 45.9418 21.0541 46.2682C20.6923 46.592 20.1781 46.7539 19.5115 46.7539H17.1895ZM18.5076 44.2196V45.7908H19.2789C19.8965 45.7908 20.2053 45.5214 20.2053 44.9827C20.2053 44.474 19.9101 44.2196 19.3197 44.2196H18.5076Z" fill="white"/>
<path d="M24.6151 46.8559C23.7772 46.8559 23.0943 46.5838 22.5665 46.0397C22.0387 45.4929 21.7748 44.7814 21.7748 43.9054C21.7748 42.9804 22.0428 42.2322 22.5788 41.6609C23.1147 41.0895 23.8248 40.8039 24.709 40.8039C25.5442 40.8039 26.219 41.0773 26.7332 41.6241C27.2501 42.171 27.5085 42.8919 27.5085 43.787C27.5085 44.7066 27.2406 45.448 26.7046 46.0111C26.1714 46.5743 25.4749 46.8559 24.6151 46.8559ZM24.6723 41.9384C24.2098 41.9384 23.8425 42.1125 23.5704 42.4607C23.2984 42.8062 23.1623 43.2647 23.1623 43.836C23.1623 44.4155 23.2984 44.8739 23.5704 45.2113C23.8425 45.5486 24.1989 45.7173 24.6396 45.7173C25.094 45.7173 25.4545 45.5541 25.7211 45.2276C25.9877 44.8984 26.121 44.4427 26.121 43.8605C26.121 43.2538 25.9918 42.7818 25.7333 42.4444C25.4749 42.107 25.1212 41.9384 24.6723 41.9384Z" fill="white"/>
<path d="M31.5511 41.9914H29.3841V46.7539H28.066V40.9018H31.5511V41.9914Z" fill="white"/>
<path d="M37.071 46.7539H35.6345L35.2183 45.4521H33.137L32.7248 46.7539H31.2965L33.4267 40.9018H34.9897L37.071 46.7539ZM34.9163 44.44L34.2878 42.473C34.2416 42.326 34.2089 42.1506 34.1899 41.9465H34.1572C34.1436 42.1179 34.1096 42.288 34.0552 42.4566L33.4186 44.44H34.9163Z" fill="white"/>
<path d="M42.4481 46.7539H41.1259V44.3706H38.7018V46.7539H37.3836V40.9018H38.7018V43.2361H41.1259V40.9018H42.4481V46.7539Z" fill="white"/>
<path d="M48.878 48.3495H47.719V46.7539H44.0054V48.3495H42.8627V45.6765H43.4055C44.1618 44.308 44.5794 42.7165 44.6583 40.9018H48.0455V45.6765H48.878V48.3495ZM46.7233 45.6765V41.9996H45.7275C45.6976 42.541 45.5942 43.1504 45.4174 43.8278C45.2405 44.5053 45.0215 45.1215 44.7603 45.6765H46.7233Z" fill="white"/>
<path d="M54.6999 46.7539H53.4552V43.5381C53.4552 43.1681 53.4688 42.8525 53.496 42.5913H53.4715C53.4144 42.7029 53.3165 42.8647 53.1777 43.0769L50.7618 46.7539H49.4355V40.9018H50.6802V44.138C50.6802 44.5379 50.6693 44.8059 50.6475 44.9419H50.6638C50.6775 44.9093 50.7781 44.7501 50.9658 44.4645L53.2879 40.9018H54.6999V46.7539Z" fill="white"/>
<path d="M60.6932 46.7539H59.371V44.3706H56.9469V46.7539H55.6287V40.9018H56.9469V43.2361H59.371V40.9018H60.6932V46.7539Z" fill="white"/>
<path d="M65.8132 46.5458C65.386 46.7525 64.8283 46.8559 64.14 46.8559C63.2422 46.8559 62.5361 46.592 62.0219 46.0642C61.5078 45.5364 61.2507 44.8331 61.2507 43.9543C61.2507 43.0184 61.539 42.2594 62.1158 41.6772C62.6953 41.095 63.4462 40.8039 64.3685 40.8039C64.9398 40.8039 65.4214 40.876 65.8132 41.0201V42.2893C65.4214 42.0553 64.9752 41.9384 64.4746 41.9384C63.925 41.9384 63.4816 42.1111 63.1442 42.4566C62.8069 42.8022 62.6382 43.2701 62.6382 43.8605C62.6382 44.4264 62.7973 44.878 63.1156 45.2154C63.434 45.55 63.8625 45.7173 64.4011 45.7173C64.9153 45.7173 65.386 45.5922 65.8132 45.3419V46.5458Z" fill="white"/>
<path d="M71.28 46.7539H69.615L67.9091 44.2114C67.8765 44.1625 67.8248 44.055 67.754 43.8891H67.7336V46.7539H66.4155V40.9018H67.7336V43.6687H67.754C67.7867 43.5925 67.8411 43.4837 67.9173 43.3422L69.5333 40.9018H71.1045L69.064 43.6932L71.28 46.7539Z" fill="white"/>
<path d="M76.6897 46.7539H75.445V43.5381C75.445 43.1681 75.4586 42.8525 75.4858 42.5913H75.4613C75.4042 42.7029 75.3063 42.8647 75.1675 43.0769L72.7516 46.7539H71.4253V40.9018H72.67V44.138C72.67 44.5379 72.6591 44.8059 72.6373 44.9419H72.6536C72.6672 44.9093 72.7679 44.7501 72.9556 44.4645L75.2777 40.9018H76.6897V46.7539Z" fill="white"/>
<path d="M82.8829 46.7539H81.6383V43.5381C81.6383 43.1681 81.6519 42.8525 81.6791 42.5913H81.6546C81.5975 42.7029 81.4995 42.8647 81.3608 43.0769L78.9448 46.7539H77.6185V40.9018H78.8632V44.138C78.8632 44.5379 78.8523 44.8059 78.8306 44.9419H78.8469C78.8605 44.9093 78.9612 44.7501 79.1489 44.4645L81.4709 40.9018H82.8829V46.7539ZM82.0545 38.947C82.0055 39.3796 81.8192 39.7238 81.4954 39.9795C81.1717 40.2352 80.7704 40.3631 80.2915 40.3631C79.8046 40.3631 79.3992 40.2352 79.0754 39.9795C78.7517 39.7238 78.5775 39.3796 78.5531 38.947H79.4917C79.5053 39.1565 79.591 39.3293 79.7488 39.4653C79.9066 39.5986 80.0929 39.6653 80.3079 39.6653C80.5201 39.6653 80.7037 39.5973 80.8588 39.4612C81.0139 39.3252 81.0996 39.1538 81.1159 38.947H82.0545Z" fill="white"/>
<path d="M22.0539 56.3055H20.3889L18.6831 53.7631C18.6504 53.7141 18.5987 53.6066 18.528 53.4407H18.5076V56.3055H17.1895V50.4534H18.5076V53.2203H18.528C18.5607 53.1441 18.6151 53.0353 18.6912 52.8938L20.3073 50.4534H21.8785L19.838 53.2448L22.0539 56.3055Z" fill="white"/>
<path d="M27.4637 56.3055H26.219V53.0897C26.219 52.7197 26.2326 52.4041 26.2598 52.1429H26.2353C26.1782 52.2545 26.0802 52.4164 25.9415 52.6286L23.5255 56.3055H22.1992V50.4534H23.4439V53.6896C23.4439 54.0896 23.433 54.3575 23.4113 54.4936H23.4276C23.4412 54.4609 23.5419 54.3018 23.7296 54.0161L26.0516 50.4534H27.4637V56.3055Z" fill="white"/>
<path d="M29.7106 54.2895V56.3055H28.3925V50.4534H30.4574C31.932 50.4534 32.6693 51.0751 32.6693 52.3184C32.6693 52.9061 32.4571 53.3822 32.0327 53.7468C31.611 54.1086 31.0465 54.2895 30.3391 54.2895H29.7106ZM29.7106 51.4655V53.2897H30.2289C30.9308 53.2897 31.2818 52.9823 31.2818 52.3674C31.2818 51.7661 30.9308 51.4655 30.2289 51.4655H29.7106Z" fill="white"/>
<path d="M38.1688 56.3055H36.8507V51.6043H34.4266V56.3055H33.1084V50.4534H38.1688V56.3055Z" fill="white"/>
<path d="M44.3539 56.3055H43.1092V53.0897C43.1092 52.7197 43.1228 52.4041 43.15 52.1429H43.1255C43.0684 52.2545 42.9704 52.4164 42.8317 52.6286L40.4158 56.3055H39.0895V50.4534H40.3342V53.6896C40.3342 54.0896 40.3233 54.3575 40.3015 54.4936H40.3178C40.3314 54.4609 40.4321 54.3018 40.6198 54.0161L42.9419 50.4534H44.3539V56.3055Z" fill="white"/>
<path d="M49.9799 56.3055H48.6577V53.9835C48.1108 54.2827 47.5572 54.4324 46.9967 54.4324C45.786 54.4324 45.1807 53.8501 45.1807 52.6857V50.4534H46.4948V52.5714C46.4948 53.0775 46.7736 53.3305 47.3314 53.3305C47.7721 53.3305 48.2142 53.1972 48.6577 52.9306V50.4534H49.9799V56.3055Z" fill="white"/>
<path d="M56.0017 56.3055H54.6795V53.9222H52.2554V56.3055H50.9373V50.4534H52.2554V52.7877H54.6795V50.4534H56.0017V56.3055Z" fill="white"/>
<path d="M63.0928 56.3055H61.7828V50.4534H63.0928V56.3055ZM56.9265 56.3055V50.4534H58.2446V52.6449H59.1057C60.5177 52.6449 61.2237 53.219 61.2237 54.3671C61.2237 54.9792 61.0333 55.4553 60.6524 55.7954C60.2715 56.1355 59.7342 56.3055 59.0404 56.3055H56.9265ZM58.2446 53.6407V55.3016H58.8404C59.5043 55.3016 59.8362 55.02 59.8362 54.4568C59.8362 53.9127 59.5124 53.6407 58.8649 53.6407H58.2446Z" fill="white"/>
<path d="M69.282 56.3055H68.0373V53.0897C68.0373 52.7197 68.0509 52.4041 68.0781 52.1429H68.0536C67.9965 52.2545 67.8985 52.4164 67.7598 52.6286L65.3439 56.3055H64.0175V50.4534H65.2622V53.6896C65.2622 54.0896 65.2514 54.3575 65.2296 54.4936H65.2459C65.2595 54.4609 65.3602 54.3018 65.5479 54.0161L67.87 50.4534H69.282V56.3055ZM68.4535 48.4987C68.4046 48.9312 68.2182 49.2754 67.8944 49.5311C67.5707 49.7869 67.1694 49.9147 66.6906 49.9147C66.2036 49.9147 65.7982 49.7869 65.4744 49.5311C65.1507 49.2754 64.9766 48.9312 64.9521 48.4987H65.8907C65.9043 48.7081 65.99 48.8809 66.1478 49.0169C66.3056 49.1502 66.492 49.2169 66.7069 49.2169C66.9191 49.2169 67.1027 49.1489 67.2578 49.0129C67.4129 48.8768 67.4986 48.7054 67.5149 48.4987H68.4535Z" fill="white"/>
<path d="M16.8154 65.641V64.4861C17.2807 64.7989 17.8098 64.9554 18.4029 64.9554C19.1375 64.9554 19.5048 64.6901 19.5048 64.1596C19.5048 63.6209 19.1008 63.3515 18.2927 63.3515H17.5418V62.364H18.2601C18.9783 62.364 19.3375 62.1109 19.3375 61.6049C19.3375 61.1424 19.0314 60.9111 18.4192 60.9111C17.9812 60.9111 17.5133 61.0499 17.0154 61.3274V60.25C17.516 60.0215 18.0696 59.9072 18.6763 59.9072C19.3157 59.9072 19.8108 60.0405 20.1618 60.3072C20.5155 60.5711 20.6923 60.9302 20.6923 61.3845C20.6923 61.7409 20.5917 62.0443 20.3903 62.2946C20.1917 62.5422 19.9074 62.7095 19.5374 62.7965V62.8169C19.9537 62.8714 20.2788 63.0224 20.5128 63.2699C20.7495 63.5148 20.8678 63.8195 20.8678 64.1841C20.8678 64.7472 20.6638 65.1839 20.2557 65.494C19.8476 65.8042 19.2599 65.9593 18.4927 65.9593C17.7636 65.9593 17.2045 65.8532 16.8154 65.641Z" fill="white"/>
<path d="M26.5877 65.8573H25.1512L24.7349 64.5554H22.6536L22.2415 65.8573H20.8131L22.9434 60.0052H24.5064L26.5877 65.8573ZM24.4329 63.5434L23.8045 61.5763C23.7582 61.4294 23.7256 61.2539 23.7065 61.0499H23.6739C23.6603 61.2213 23.6263 61.3913 23.5718 61.56L22.9352 63.5434H24.4329Z" fill="white"/>
<path d="M26.9003 65.8573V60.0052H29.0305C29.6835 60.0052 30.1854 60.1249 30.5364 60.3643C30.8874 60.6037 31.0628 60.9411 31.0628 61.3764C31.0628 61.692 30.9554 61.9681 30.7404 62.2048C30.5282 62.4415 30.2562 62.6061 29.9243 62.6986V62.7149C30.3405 62.7666 30.6724 62.9203 30.92 63.1761C31.1703 63.4318 31.2955 63.7433 31.2955 64.1106C31.2955 64.6466 31.1037 65.0723 30.72 65.3879C30.3364 65.7008 29.8127 65.8573 29.1489 65.8573H26.9003ZM28.2184 60.9764V62.364H28.7979C29.07 62.364 29.2835 62.2987 29.4386 62.1681C29.5964 62.0348 29.6753 61.8525 29.6753 61.6212C29.6753 61.1914 29.3543 60.9764 28.7122 60.9764H28.2184ZM28.2184 63.3434V64.886H28.9326C29.2373 64.886 29.4754 64.8152 29.6468 64.6738C29.8209 64.5323 29.9079 64.3391 29.9079 64.0943C29.9079 63.8603 29.8222 63.6767 29.6508 63.5434C29.4822 63.41 29.2455 63.3434 28.9407 63.3434H28.2184Z" fill="white"/>
<path d="M34.3178 65.9593C33.4799 65.9593 32.797 65.6872 32.2692 65.1431C31.7414 64.5962 31.4775 63.8848 31.4775 63.0087C31.4775 62.0837 31.7454 61.3356 32.2814 60.7642C32.8174 60.1929 33.5275 59.9072 34.4117 59.9072C35.2469 59.9072 35.9216 60.1807 36.4358 60.7275C36.9527 61.2743 37.2112 61.9953 37.2112 62.8904C37.2112 63.81 36.9432 64.5513 36.4073 65.1145C35.874 65.6777 35.1775 65.9593 34.3178 65.9593ZM34.3749 61.0417C33.9124 61.0417 33.5451 61.2159 33.2731 61.5641C33.001 61.9096 32.865 62.368 32.865 62.9394C32.865 63.5189 33.001 63.9773 33.2731 64.3147C33.5451 64.652 33.9015 64.8207 34.3423 64.8207C34.7966 64.8207 35.1571 64.6575 35.4237 64.331C35.6904 64.0018 35.8237 63.5461 35.8237 62.9639C35.8237 62.3572 35.6944 61.8851 35.436 61.5478C35.1775 61.2104 34.8238 61.0417 34.3749 61.0417Z" fill="white"/>
<path d="M43.2739 67.4529H42.1149V65.8573H38.4012V67.4529H37.2585V64.7799H37.8013C38.5576 63.4114 38.9753 61.8198 39.0542 60.0052H42.4413V64.7799H43.2739V67.4529ZM41.1191 64.7799V61.1029H40.1234C40.0934 61.6444 39.9901 62.2538 39.8132 62.9312C39.6364 63.6086 39.4174 64.2249 39.1562 64.7799H41.1191Z" fill="white"/>
</svg>

<svg width="83" height="93" fill="none" xmlns="http://www.w3.org/2000/svg"><path fill-rule="evenodd" clip-rule="evenodd" d="M34.975 2.222l.84-.544L34.725 0l-.839.544L1.65 21.438l-1.296.84 1.297.84L11.8 29.683l.545.353.544-.355 12.184-7.946v15.466h2V18.044l-1.546 1.008-13.186 8.6-8.307-5.375L34.975 2.222zM27.073 69.44h-2v9.625l-13.521 9.361V33.691l-.434-.298-9.551-6.567L0 25.75v59.018h2V29.55l7.552 5.192v57.5l1.569-1.087L26.643 80.41l.43-.298V69.439z" fill="#fff"/><path d="M17.19 46.754v-5.852h3.766v1.081h-2.448v1.278h1.13c.626 0 1.109.145 1.449.436.343.289.514.689.514 1.2 0 .588-.182 1.045-.547 1.371-.362.324-.876.486-1.542.486h-2.323zm1.318-2.534v1.57h.77c.619 0 .927-.269.927-.807 0-.509-.295-.763-.885-.763h-.812zm6.107 2.636c-.838 0-1.52-.272-2.048-.816-.528-.547-.792-1.259-.792-2.135 0-.925.268-1.673.804-2.244.536-.572 1.246-.857 2.13-.857.835 0 1.51.273 2.024.82.517.547.776 1.268.776 2.163 0 .92-.268 1.661-.804 2.224-.534.563-1.23.845-2.09.845zm.057-4.918c-.462 0-.83.174-1.102.523-.272.345-.408.804-.408 1.375 0 .58.136 1.038.408 1.375.273.338.629.506 1.07.506.454 0 .814-.163 1.081-.49.267-.329.4-.784.4-1.366 0-.607-.13-1.08-.388-1.417-.258-.337-.612-.506-1.06-.506zm6.879.053h-2.167v4.763h-1.318v-5.852h3.485v1.09zm5.52 4.763h-1.436l-.417-1.302h-2.081l-.412 1.302h-1.428l2.13-5.852h1.563l2.081 5.852zm-2.155-2.314l-.628-1.967a2.565 2.565 0 01-.098-.526h-.033a2.232 2.232 0 01-.102.51l-.636 1.983h1.497zm7.532 2.314h-1.322V44.37h-2.424v2.383h-1.318v-5.852h1.318v2.334h2.424v-2.334h1.322v5.852zm6.43 1.596h-1.159v-1.596h-3.714v1.596h-1.142v-2.674h.543c.756-1.368 1.173-2.96 1.252-4.774h3.387v4.774h.833v2.673zm-2.155-2.674V42h-.995a9.372 9.372 0 01-.31 1.828 10.663 10.663 0 01-.658 1.848h1.963zm7.977 1.078h-1.245v-3.216c0-.37.014-.685.041-.947h-.025a5.854 5.854 0 01-.293.486l-2.416 3.677h-1.327v-5.852h1.245v3.236c0 .4-.01.668-.032.804h.016c.014-.033.114-.192.302-.477l2.322-3.563H54.7v5.852zm5.993 0h-1.322V44.37h-2.424v2.383h-1.318v-5.852h1.318v2.334h2.424v-2.334h1.322v5.852zm5.12-.208c-.427.206-.985.31-1.673.31-.898 0-1.604-.264-2.118-.792-.514-.528-.771-1.23-.771-2.11 0-.936.288-1.695.865-2.277.58-.582 1.33-.873 2.252-.873.572 0 1.053.072 1.445.216v1.27a2.56 2.56 0 00-1.338-.352c-.55 0-.993.173-1.33.519-.338.345-.507.813-.507 1.404 0 .565.16 1.017.478 1.354.318.335.746.502 1.285.502.514 0 .985-.125 1.412-.375v1.204zm5.467.208h-1.665l-1.706-2.543a2.447 2.447 0 01-.155-.322h-.02v2.865h-1.319v-5.852h1.319v2.767h.02c.033-.076.087-.185.163-.327l1.616-2.44h1.572l-2.041 2.791 2.216 3.06zm5.41 0h-1.245v-3.216c0-.37.014-.685.04-.947h-.024a5.854 5.854 0 01-.293.486l-2.416 3.677h-1.327v-5.852h1.245v3.236c0 .4-.01.668-.033.804h.017c.013-.033.114-.192.302-.477l2.322-3.563h1.412v5.852zm6.193 0h-1.245v-3.216c0-.37.014-.685.041-.947h-.024a5.882 5.882 0 01-.294.486l-2.416 3.677h-1.326v-5.852h1.244v3.236c0 .4-.01.668-.032.804h.016c.014-.033.114-.192.302-.477l2.322-3.563h1.412v5.852zm-.828-7.807a1.471 1.471 0 01-.56 1.032c-.323.256-.725.384-1.204.384-.486 0-.892-.128-1.216-.383a1.353 1.353 0 01-.522-1.033h.939c.013.21.099.382.257.518.158.134.344.2.559.2a.808.808 0 00.55-.204.736.736 0 00.258-.514h.939zM22.054 56.306h-1.665l-1.706-2.543a2.43 2.43 0 01-.155-.322h-.02v2.864h-1.319v-5.852h1.319v2.767h.02c.033-.076.087-.185.163-.326l1.616-2.44h1.572l-2.041 2.79 2.216 3.062zm5.41 0h-1.245V53.09c0-.37.014-.686.04-.947h-.024a5.88 5.88 0 01-.293.486l-2.416 3.677h-1.327v-5.853h1.245v3.237c0 .4-.011.668-.033.804h.017c.013-.033.114-.192.302-.478l2.322-3.563h1.412v5.852zm2.246-2.016v2.016h-1.318v-5.853h2.065c1.475 0 2.212.622 2.212 1.865 0 .588-.212 1.064-.636 1.429-.422.362-.986.542-1.694.542h-.628zm0-2.825v1.825h.519c.702 0 1.053-.308 1.053-.923 0-.6-.351-.901-1.053-.901h-.518zm8.459 4.841H36.85v-4.702h-2.424v4.702h-1.319v-5.853h5.06v5.852zm6.185 0h-1.245V53.09c0-.37.014-.686.041-.947h-.024a5.88 5.88 0 01-.294.486l-2.416 3.677H39.09v-5.853h1.244v3.237c0 .4-.01.668-.033.804h.017c.013-.033.114-.192.302-.478l2.322-3.563h1.412v5.852zm5.626 0h-1.322v-2.322c-.547.299-1.1.448-1.661.448-1.211 0-1.816-.582-1.816-1.746v-2.233h1.314v2.118c0 .507.279.76.836.76.441 0 .883-.134 1.327-.4v-2.478h1.322v5.852zm6.022 0h-1.323v-2.384h-2.424v2.384h-1.318v-5.853h1.318v2.335h2.424v-2.335h1.323v5.852zm7.091 0h-1.31v-5.853h1.31v5.852zm-6.167 0v-5.853h1.319v2.192h.86c1.413 0 2.119.574 2.119 1.722 0 .612-.19 1.088-.572 1.428-.38.34-.918.51-1.612.51h-2.114zm1.319-2.665v1.66h.595c.664 0 .996-.281.996-.844 0-.544-.324-.816-.971-.816h-.62zm11.037 2.665h-1.245V53.09c0-.37.014-.686.041-.947h-.024a5.88 5.88 0 01-.294.486l-2.416 3.677h-1.326v-5.853h1.244v3.237c0 .4-.01.668-.032.804h.016c.014-.033.114-.192.302-.478l2.322-3.563h1.412v5.852zm-.828-7.807a1.47 1.47 0 01-.56 1.032c-.323.256-.725.384-1.203.384-.487 0-.893-.128-1.217-.384-.323-.256-.497-.6-.522-1.032h.939c.013.21.099.382.257.518a.84.84 0 00.559.2.808.808 0 00.55-.204.737.737 0 00.258-.514h.939zM16.815 65.641v-1.155c.466.313.995.47 1.588.47.735 0 1.102-.266 1.102-.796 0-.54-.404-.808-1.212-.808h-.751v-.988h.718c.718 0 1.077-.253 1.077-.76 0-.462-.306-.693-.918-.693-.438 0-.906.139-1.404.416V60.25a3.953 3.953 0 011.661-.343c.64 0 1.135.134 1.486.4.354.264.53.623.53 1.078 0 .356-.1.66-.302.91-.198.247-.483.414-.853.502v.02c.417.054.742.205.976.453.236.245.355.55.355.914 0 .563-.204 1-.612 1.31-.408.31-.996.465-1.763.465-.73 0-1.288-.106-1.678-.318zm9.773.216H25.15l-.416-1.302h-2.081l-.413 1.302h-1.428l2.13-5.852h1.563l2.082 5.852zm-2.155-2.314l-.628-1.967a2.563 2.563 0 01-.099-.526h-.032a2.227 2.227 0 01-.102.51l-.637 1.983h1.498zm2.467 2.314v-5.852h2.13c.653 0 1.155.12 1.506.36.351.239.527.576.527 1.011 0 .316-.108.592-.323.829a1.67 1.67 0 01-.816.494v.016c.416.052.748.205.996.461.25.256.375.567.375.935 0 .536-.191.961-.575 1.277-.384.313-.907.47-1.571.47H26.9zm1.318-4.88v1.387h.58c.272 0 .486-.065.64-.196a.678.678 0 00.237-.547c0-.43-.32-.645-.963-.645h-.494zm0 2.366v1.543h.715c.304 0 .542-.07.714-.212a.707.707 0 00.26-.58.66.66 0 00-.256-.55c-.169-.134-.405-.2-.71-.2h-.723zm6.1 2.617c-.838 0-1.521-.273-2.049-.817-.528-.547-.791-1.258-.791-2.134 0-.925.267-1.673.803-2.245.536-.571 1.247-.857 2.13-.857.836 0 1.51.274 2.025.82.517.547.775 1.268.775 2.163 0 .92-.268 1.661-.804 2.225-.533.563-1.23.844-2.09.844zm.057-4.918c-.463 0-.83.174-1.102.522-.272.346-.408.804-.408 1.375 0 .58.136 1.038.408 1.376.272.337.628.506 1.07.506.454 0 .814-.163 1.08-.49.267-.33.4-.785.4-1.367 0-.607-.129-1.079-.387-1.416-.258-.338-.612-.506-1.061-.506zm8.899 6.411h-1.16v-1.596h-3.713v1.596h-1.143V64.78h.543c.757-1.369 1.174-2.96 1.253-4.775h3.387v4.775h.833v2.673zm-2.155-2.673v-3.677h-.996a9.373 9.373 0 01-.31 1.828 10.658 10.658 0 01-.657 1.849h1.963z" fill="#fff"/></svg>
